shader_type canvas_item;

uniform float flash_strength : hint_range(0.0, 1.0) = 0.0;
uniform vec4 flash_color : source_color = vec4(1.0, 0.0, 0.0, 1.0);

void fragment()
{
	vec4 tex_color = texture(TEXTURE, UV);

	// Blend original color with flash color
	vec3 flashed = mix(tex_color.rgb, flash_color.rgb, flash_strength);

	COLOR = vec4(flashed, tex_color.a);
}
